packages/synapse-interface/assets/icons/wbtc.svg

<svg fill="none" height="48" viewBox="0 0 48 48" width="48" xmlns="http://www.w3.org/2000/svg"><rect fill="#282138" height="48" rx="24" width="48"/><g fill="#fcfcfd"><path clip-rule="evenodd" d="m28.0848 20.677c0 2.6556-4.1423 2.3334-5.4564 2.3334v-4.6784c1.3164 0 5.4564-.4166 5.4564 2.345zm1.0816 7.2628c0 2.9019-4.9616 2.5705-6.5426 2.5705v-5.1387c1.581 0 6.5426-.4603 6.5426 2.5797m3.2678-8.3099c-.2647-2.7846-2.6488-3.7051-5.6658-3.995v-3.8178h-2.3174v3.7418c-.6144 0-1.2403 0-1.864.023v-3.7648h-2.3289v3.8408h-4.7245v2.4992s1.7214-.03 1.696 0c.3107-.0342.6225.0537.8694.2453.247.1915.4097.4716.4539.781v10.5192c-.0065.1082-.0342.2141-.0817.3116-.0475.0976-.1138.1847-.195.2566-.0812.0718-.1759.1269-.2785.1621s-.2111.0497-.3193.0429c.0299.0276-1.6961 0-1.6961 0l-.4602 2.7914h4.7061v3.9122h2.3312v-3.8546h1.8617v3.8293h2.3312v-3.8593c3.9375-.2301 6.6737-1.2127 7.0281-4.9063.2785-2.9755-1.1161-4.3011-3.346-4.8326 1.3554-.6904 2.2069-1.9078 2.0044-3.9329" fill-rule="evenodd"/><g fill-opacity=".8"><path d="m11.3499 9.96454c2.363-2.13754 5.2315-3.63784 8.335-4.35936 3.1035-.72153 6.3397-.64049 9.4032.23547l.267.07594c.1335.03913.2646.08055.3958.12427.1887.05984.3774.12427.5615.19101l.1841.06674c.2509.09205.5017.191.7479.29456l.03.01381c1.9629.84392 3.7869 1.97978 5.4103 3.36906l1.0263-1.10921c-.1381-.13808-.2807-.26465-.4211-.39582-3.5535-3.07833-8.0632-4.83146-12.7629-4.96155-.2508 0-.5017 0-.7525 0h-.0529c-1.5243.02111-3.042.20628-4.5266.55231l-.3038.07364-.2531.06673c-1.4794.39665-2.9092.95945-4.262 1.67763-1.4813.79529-2.8299 1.81623-3.9973 3.02618z"/><path d="m10.0497 11.2556-1.12765-.9873c-7.64943 8.0177-6.53562 21.0636 0 27.2816l1.15065-.8998c-3.18122-3.4621-4.94829-7.9915-4.95212-12.6932-.00383-4.7018 1.75584-9.234 4.93142-12.7013z"/><path d="m39.5589 10.7676c-.1772-.1841-.3567-.3659-.5431-.5385l-.9872 1.0816c5.7992 6.5886 7.0235 17.0479.1818 25.1l.9619 1.1622c3.2869-3.6694 5.1371-8.4029 5.2099-13.3286.0727-4.9258-1.637-9.7119-4.8141-13.4767z"/><path d="m36.7583 37.9503c-.6674.4994-1.3302.9573-1.9953 1.3808-2.4134 1.7057-5.1963 2.816-8.1212 3.2402-1.4964.2386-3.0183.2742-4.5243.1058-3.7931-.3678-7.384-1.8835-10.2936-4.3448-.1518-.1104-.3014-.2186-.4602-.3337l-1.0609.9505c3.712 3.6659 8.8001 5.4287 13.8076 5.4264h.3314.053c4.658-.1215 9.1332-1.838 12.6777-4.8626.1611-.1519.3245-.3015.4786-.4603z"/></g><path d="m23.9908 1.61089c4.4289-.00182 8.7589 1.30997 12.4422 3.76941 3.6833 2.45945 6.5544 5.9561 8.2501 10.0475 1.6957 4.0915 2.1398 8.5939 1.2763 12.9378-.8636 4.344-2.9962 8.3342-6.1279 11.4659s-7.1219 5.2643-11.4659 6.1278c-4.3439.8636-8.8463.4195-12.9378-1.2762-4.0914-1.6957-7.58804-4.5668-10.04749-8.2501s-3.77123-8.0133-3.76941-12.4422c.00913-5.9327 2.36994-11.6198 6.56501-15.8149 4.19509-4.19507 9.88219-6.55588 15.81489-6.56501m0-1.61088823c-4.7468.00182094-9.3864 1.41117823-13.3321 4.04983823-3.9458 2.63867-7.0205 6.38816-8.83532 10.77426-1.81482036 4.3861-2.288249 9.2119-1.360418 13.8671.927828 4.6552 3.215248 8.9307 6.572998 12.2859 3.35774 3.3551 7.63504 5.6393 12.29094 6.5635 4.6559.9243 9.4813.4472 13.866-1.371s8.1318-4.8958 10.7675-8.8436c2.6356-3.9478 4.0414-8.5885 4.0396-13.3352-.0012-3.1517-.6232-6.2724-1.8304-9.1837-1.2072-2.9114-2.9761-5.55642-5.2055-7.78417-2.2295-2.22775-4.8759-3.99456-7.7882-5.19956-2.9123-1.204996-6.0334-1.8245773-9.1851-1.82336823z"/></g></svg>

<svg width="48" height="48" viewBox="0 0 48 48" fill="none" xmlns="http://www.w3.org/2000/svg">
<rect width="48" height="48" rx="24" fill="#282138"/>
<path fill-rule="evenodd" clip-rule="evenodd" d="M28.0848 20.677C28.0848 23.3326 23.9425 23.0104 22.6284 23.0104V18.332C23.9448 18.332 28.0848 17.9154 28.0848 20.677ZM29.1664 27.9398C29.1664 30.8417 24.2048 30.5103 22.6238 30.5103V25.3716C24.2048 25.3716 29.1664 24.9113 29.1664 27.9513M32.4342 19.6414C32.1695 16.8568 29.7854 15.9363 26.7684 15.6464V11.8286H24.451V15.5704C23.8366 15.5704 23.2107 15.5704 22.587 15.5934V11.8286H20.2581V15.6694H15.5336V18.1686C15.5336 18.1686 17.255 18.1386 17.2296 18.1686C17.5403 18.1344 17.8521 18.2223 18.099 18.4139C18.346 18.6054 18.5087 18.8855 18.5529 19.1949V29.7141C18.5464 29.8223 18.5187 29.9282 18.4712 30.0257C18.4237 30.1233 18.3574 30.2104 18.2762 30.2823C18.195 30.3541 18.1003 30.4092 17.9977 30.4444C17.8951 30.4796 17.7866 30.4941 17.6784 30.4873C17.7083 30.5149 15.9823 30.4873 15.9823 30.4873L15.5221 33.2787H20.2282V37.1909H22.5594V33.3363H24.4211V37.1656H26.7523V33.3063C30.6898 33.0762 33.426 32.0936 33.7804 28.4C34.0589 25.4245 32.6643 24.0989 30.4344 23.5674C31.7898 22.877 32.6413 21.6596 32.4388 19.6345" fill="#FCFCFD"/>
<path d="M11.3499 9.96454C13.7129 7.827 16.5814 6.3267 19.6849 5.60518C22.7884 4.88365 26.0246 4.96469 29.0881 5.84065L29.3551 5.91659C29.4886 5.95572 29.6197 5.99714 29.7509 6.04086C29.9396 6.1007 30.1283 6.16513 30.3124 6.23187L30.4965 6.29861C30.7474 6.39066 30.9982 6.48961 31.2444 6.59317L31.2744 6.60698C33.2373 7.4509 35.0613 8.58676 36.6847 9.97604L37.711 8.86683C37.5729 8.72875 37.4303 8.60218 37.2899 8.47101C33.7364 5.39268 29.2267 3.63955 24.527 3.50946C24.2762 3.50946 24.0253 3.50946 23.7745 3.50946H23.7216C22.1973 3.53057 20.6796 3.71574 19.195 4.06177L18.8912 4.13541L18.6381 4.20214C17.1587 4.59879 15.7289 5.16159 14.3761 5.87977C12.8948 6.67506 11.5462 7.696 10.3788 8.90595L11.3499 9.96454Z" fill="#FCFCFD" fill-opacity="0.8"/>
<path d="M10.0497 11.2556L8.92205 10.2683C1.27262 18.286 2.38643 31.3319 8.92205 37.5499L10.0727 36.6501C6.89148 33.188 5.12441 28.6586 5.12058 23.9569C5.11675 19.2551 6.87642 14.7229 10.052 11.2556H10.0497Z" fill="#FCFCFD" fill-opacity="0.8"/>
<path d="M39.5589 10.7676C39.3817 10.5835 39.2022 10.4017 39.0158 10.2291L38.0286 11.3107C43.8278 17.8993 45.0521 28.3586 38.2104 36.4107L39.1723 37.5729C42.4592 33.9035 44.3094 29.17 44.3822 24.2443C44.4549 19.3185 42.7452 14.5324 39.5681 10.7676H39.5589Z" fill="#FCFCFD" fill-opacity="0.8"/>
<path d="M36.7583 37.9503C36.0909 38.4497 35.4281 38.9076 34.763 39.3311C32.3496 41.0368 29.5667 42.1471 26.6418 42.5713C25.1454 42.8099 23.6235 42.8455 22.1175 42.6771C18.3244 42.3093 14.7335 40.7936 11.8239 38.3323C11.6721 38.2219 11.5225 38.1137 11.3637 37.9986L10.3028 38.9491C14.0148 42.615 19.1029 44.3778 24.1104 44.3755C24.2209 44.3755 24.3406 44.3755 24.4418 44.3755H24.4948C29.1528 44.254 33.628 42.5375 37.1725 39.5129C37.3336 39.361 37.497 39.2114 37.6511 39.0526L36.7583 37.9503Z" fill="#FCFCFD" fill-opacity="0.8"/>
<path d="M23.9908 1.61089C28.4197 1.60907 32.7497 2.92086 36.433 5.3803C40.1163 7.83975 42.9874 11.3364 44.6831 15.4278C46.3788 19.5193 46.8229 24.0217 45.9594 28.3656C45.0958 32.7096 42.9632 36.6998 39.8315 39.8315C36.6998 42.9632 32.7096 45.0958 28.3656 45.9593C24.0217 46.8229 19.5193 46.3788 15.4278 44.6831C11.3364 42.9874 7.83976 40.1163 5.38031 36.433C2.92086 32.7497 1.60908 28.4197 1.6109 23.9908C1.62003 18.0581 3.98084 12.371 8.17591 8.1759C12.371 3.98083 18.0581 1.62002 23.9908 1.61089M23.9908 1.76613e-06C19.244 0.00182271 14.6044 1.41118 10.6587 4.04984C6.7129 6.68851 3.6382 10.438 1.82338 14.8241C0.00855964 19.2102 -0.464869 24.036 0.462962 28.6912C1.39079 33.3464 3.67821 37.6219 7.03596 40.9771C10.3937 44.3322 14.671 46.6164 19.3269 47.5406C23.9828 48.4649 28.8082 47.9878 33.1929 46.1696C37.5776 44.3514 41.3247 41.2738 43.9604 37.326C46.596 33.3782 48.0018 28.7375 48 23.9908C47.9988 20.8391 47.3768 17.7184 46.1696 14.8071C44.9624 11.8957 43.1935 9.25068 40.9641 7.02293C38.7346 4.79518 36.0882 3.02837 33.1759 1.82337C30.2636 0.618374 27.1425 -0.0012073 23.9908 1.76613e-06V1.76613e-06Z" fill="#FCFCFD"/>
</svg>
